collections/phosporicons/regular/bank.svg

<svg xmlns="http://www.w3.org/2000/svg" viewBox="0 0 256 256" width="20" height="20"><path fill="none" d="M0 0h256v256H0z"/><path fill="none" stroke="#000" stroke-linecap="round" stroke-linejoin="round" stroke-width="16" d="M24.002 96h208l-104-64-104 64zm32 0v80m48-80v80m48-80v80m48-80v80m-168 0h192m-208 32h224"/></svg>

<svg xmlns="http://www.w3.org/2000/svg" viewBox="0 0 256 256" width="20" height="20"><path fill="none" d="M0 0h256v256H0z"/><path fill="none" stroke="#000" stroke-linecap="round" stroke-linejoin="round" stroke-width="16" d="M24 96h208L128 32 24 96zM56 96v80M104 96v80M152 96v80M200 96v80M32 176h192M16 208h224"/></svg>
